X:1
T:Silent Night, Holy Night
T:Silent Night, Holy Night
T:4. Si -
T:W0n- drous star, _
T:lend thy light;_
T:us sing,
T:let
T:ho - ly night, _
T:With the an - gels
T:www.composeronline.com
T:www.composeronline.com
Z:www.composeronline.com
%%score { 1 | 2 }
L:1/8
Q:1/4=120
M:none
K:Bb
V:1 treble nm="Part_1"
V:2 treble 
V:1
 z2 |"_S""_S""_S" (F>"_lent night,""_lent night,""_lent night,"G)F D3 x2 | %2
"^Soprano Descant""_ho - ly night,""_ho - ly night,""_ho - ly night," (F>G)F D3 x2 | %3
"_All""_Shep - herds quake""_Son" c2"_is calm,""_of God," c A3 x2 | %4
"_all""_at""_loVe’s pure light;" !tenuto!B2"_is bright""_the sight;" B F3 x2 | %5
"_Round""_Glo - ries stream_ from hea - Ven a - far,""_Ra - diant beams_ from Thy ho - ly face" G2"_yon Vir - gin moth - er and Child." G (B>A)G x2 | %6
 F>GF D3 x2 | %7
"_Ho - ly In - fant, so ten - der and mild,""_Heaven- ly h0stsT sing A1 - 1e - lu - ia!""_With the dawn of re - deem - mg grace," !tenuto!G2 G B>AG x2 | %8
 F>GF D3 x2 | %9
"_Sleep""_Christ""_Je - sus, Lord, at Thy" c2"_in heav - en - ly""_the Sa - vior is" c e>cA x2 | %10
"_peace,""_born,""_birth," (!tenuto!B3 d3) x2 | %11
"_S""_Christ_""_Je" (B"_-"!>)!!>(!F)"_in heav - en - 1y""_the Sa - vior is""_sus, Lord,"D F>"_at Thy"EC x2 | %12
"_pe""_bor""_birth."!>(! B,3 B,3 x2!>)! |] %13
V:2
 z2 | (F>G)B (!>!B2 !tenuto!c) x2 | (d>e)d (c B2) x2 | z ff (f e2) x2 | !tenuto!d2 d (c B2) x2 | %5
 z ee e2 e x2 | (d>!tenuto!e)d B3 x2 | z ee e2 e x2 | ((d>e))d (c B2) x2 | z ff f>fe x2 | %10
 (!tenuto!dfg f3) x2 | f2 f c>ce x2 | !>!d3 d2 x3 |] %13

